X:508
T: Trinkzeremonie (212), S. 463
N: T0396
O: Luxemburg
S: Singendes Volk, Esch-Alzette, 1937 posth.]
N: Junglinster, fff Schwester des Verfassers
R: Trink-, Zechlied]
M: 2/4
L: 1/8
K: D
A | AABA | GFG
A | AABA | GFG2 |
EFFF | FDFF |
AABA | GBA

@@@ Tune index: 8562
